X:1
T:Title
%%score 1 2
L:1/8
Q:1/4=92
M:3/4
K:C
V:1 treble nm="Grand Piano, Soprano"
V:2 bass nm="Choir Pad, Avoca, 87.87 D"
V:1
 [CE][DF] [FA]3 [EG] | [Ed]>[Ec] [Fc]2 [FB]2 | [B,D][CE] [DF]3 [FA] | [EG]>[DF] [CE]4 | %4
w: By~Hart~Pease~Danks,~1902 * * *||||
 EE [Ec]3 [EB] | [EA][EG] [EG]2 [DF]2 | [D^F][DF] [DG]3 [DB] | [DB]>[CA] [B,G]4 | GG [Fd]3 [Fc] | %9
w: |||||
 [FB][FA] [FA]2 [FG]2 | [FG][FG] [Ec]3 [CE] | [CF][CA] [CG]4 | [EG][EG] [FA]3 [FA] | %13
w: ||||
 [GA][GA] [FA]2 [Af]2 | [Ae][Ad] [Gd]3 [Gc] | [Fc][FB] [Ec]4- | [Ec]4 z2 |] %17
w: ||||
V:2
 [C,G,][C,G,] [C,C]3 [C,C] | [C,G,]>[C,G,] [D,G,]2 [D,G,]2 | [G,,G,][G,,G,] [G,,G,]3 [G,,G,] | %3
 [A,,G,]>[B,,G,] [C,G,]4 | E,E, [A,,A,]3 [B,,^G,] | [C,A,][^C,A,] [D,A,]2 [D,A,]2 | %6
 [C,A,][C,A,] [B,,G,]3 [G,,G,] | [D,^F,]>[D,F,] [G,,G,]4 | G,G, [G,B,]3 [G,C] | %9
 [G,D][G,C] [G,B,]2 [G,B,]2 | [G,B,][G,B,] [C,C]3 [_B,,G,] | [A,,F,][F,,F,] [C,E,]4 | %12
 [C,G,][C,C] [F,C]3 [F,C] | [E,^C][E,C] [D,D]2 [D,D]2 | [E,^C][F,D] [G,E]3 [G,E] | %15
 [G,D][G,D] [C,C]4- | [C,C]4 z2 |] %17

